img/icons/logo.svg

<svg width="179" height="71" viewBox="0 0 179 71" fill="none" xmlns="http://www.w3.org/2000/svg">
<rect width="70.6579" height="71" fill="#E21A1A"/>
<rect width="108.342" height="71" transform="matrix(-1 0 0 1 179 0)" fill="#194D92"/>
<path d="M35.9985 28.1678L36.2456 34.7264C36.2456 34.7264 36.6779 34.539 37.975 34.2267C38.9632 33.8519 38.9632 33.8519 39.6427 33.727C39.6427 33.727 39.7662 30.6038 39.8279 30.4164C39.8897 30.2291 40.4456 29.9792 41.6809 29.9792C42.9779 29.9792 43.4721 30.2291 43.4721 30.4789C43.4721 30.7288 43.5956 32.9774 43.5956 32.9774C43.5956 32.9774 46.4985 32.5402 49.4015 32.3528C52.3662 32.1654 55.7015 32.3528 55.7015 32.3528C55.7015 32.3528 55.5779 31.2909 55.0838 29.7918C54.5279 28.1053 54.0956 27.2308 54.0956 27.2308C54.0956 27.2308 51.3779 26.5437 44.8309 26.9185C39.5809 27.1684 35.9985 28.1678 35.9985 28.1678Z" fill="white"/>
<path d="M48.7835 19.9229C48.7835 19.9229 48.0423 19.0484 44.9541 17.3619C41.3717 15.4255 38.16 14.9883 35.5041 14.9883C33.0952 14.9883 30.1305 15.3006 26.1158 16.9871C21.7923 18.861 17.9629 23.7956 17.9629 23.7956C17.9629 23.7956 23.9541 20.8598 32.9099 19.6106C41.557 18.4862 48.7835 19.9229 48.7835 19.9229Z" fill="white"/>
<path d="M51.9333 23.4834C50.8833 22.0467 49.8333 20.9848 49.8333 20.9848C49.8333 20.9848 42.1745 19.1734 31.1804 21.3596C22.9039 22.9837 16.2951 26.669 16.2951 26.669C16.2951 26.669 15.6774 27.9183 14.998 30.3543C14.4421 32.4156 14.2568 34.1021 14.2568 34.1021C14.2568 34.1021 16.6039 32.7904 21.2362 30.9165C28.7098 27.8558 31.7362 27.2312 31.7362 27.2312C31.7362 27.2312 31.9215 24.0455 31.9833 23.8581C32.0451 23.6083 33.0333 23.4209 33.9598 23.4209C34.8862 23.4209 35.998 23.6083 35.998 23.7957C35.998 23.9831 36.0598 26.4191 36.0598 26.4191C36.0598 26.4191 41.1862 25.6071 45.201 25.6071C50.8833 25.5446 53.601 26.1693 53.601 26.1693C53.601 26.1693 52.9833 24.9825 51.9333 23.4834Z" fill="white"/>
<path d="M14.1333 36.9759C14.1333 36.9759 14.0716 38.7873 14.5657 40.9735C14.998 42.9099 15.6157 44.409 15.6157 44.409C15.6157 44.409 19.5069 42.0354 23.0892 40.224C27.7216 37.8504 31.1804 36.3513 31.1804 36.3513L31.551 29.168C31.551 29.168 27.9686 30.1674 21.9774 32.9782C16.1098 35.6642 14.1333 36.9759 14.1333 36.9759Z" fill="white"/>
<path d="M36.3066 36.6634L36.5537 42.8473C36.5537 42.8473 37.2331 42.535 37.9125 42.2851C38.5919 41.9728 39.2096 41.7229 39.2096 41.7229L39.5184 35.5391C39.5184 35.5391 38.9008 35.7265 37.789 36.1012C37.1096 36.3511 36.8625 36.4135 36.3066 36.6634Z" fill="white"/>
<path d="M43.6567 34.6024C43.6567 34.6024 46.2509 33.9153 49.1538 33.6655C53.4773 33.2907 55.8862 33.5406 55.8862 33.5406C55.8862 33.5406 56.195 34.9772 56.195 36.4139C56.195 37.6007 56.0714 38.4752 56.0714 38.4752C56.0714 38.4752 54.4656 38.5376 52.8597 38.725C51.5626 38.85 49.895 39.0998 49.895 39.0998C49.895 39.0998 49.7714 36.8511 49.7714 36.6013C49.7714 36.4139 49.2156 36.2265 48.1656 36.2265C47.2391 36.2265 46.6214 36.4139 46.6214 36.5388C46.6214 36.7262 46.6214 36.4139 46.4979 39.537C46.4979 39.537 45.8803 39.7244 45.3244 39.8494C44.7685 39.9743 43.9656 40.2241 43.9656 40.2241L43.6567 34.6024Z" fill="white"/>
<path d="M31.0567 38.7246L30.6861 45.7205C29.0185 46.7824 28.9567 46.8448 26.3626 48.5314C23.7067 50.2803 20.9891 52.4665 20.9891 52.4665C20.9891 52.4665 20.2479 51.9044 18.642 49.9055C17.4685 48.4689 16.7891 47.0947 16.7891 47.0947C16.7891 47.0947 20.1244 44.6586 24.3244 42.2226C28.4626 39.9114 31.0567 38.7246 31.0567 38.7246Z" fill="white"/>
<path d="M30.5626 48.6562L30.2538 56.4017L29.1421 57.4011C29.1421 57.4011 27.4744 56.7765 25.8685 56.0269C24.2626 55.2149 23.1509 54.4029 23.1509 54.4029C23.1509 54.4029 25.0038 52.8413 26.3009 51.8419C28.0921 50.4677 30.5626 48.6562 30.5626 48.6562Z" fill="white"/>
<path d="M36.6157 45.1584L36.8628 52.0919L38.7775 50.8426L39.0863 43.9092C39.0863 43.9092 38.8393 43.9716 37.7275 44.5338C36.9863 44.9711 36.6157 45.1584 36.6157 45.1584Z" fill="white"/>
<path d="M49.833 40.598L49.9565 45.4077C49.9565 45.4077 51.933 44.5332 52.7977 44.1585C53.7859 43.7837 54.7742 43.3464 54.7742 43.3464C54.7742 43.3464 55.083 42.5344 55.3918 41.7224C55.8242 40.3482 55.8859 39.5986 55.8859 39.5986C55.8859 39.5986 54.7124 39.6611 52.7977 39.9734C51.3771 40.2233 49.833 40.598 49.833 40.598Z" fill="white"/>
<path d="M44.1511 48.1561L45.9423 47.1567L46.3129 41.2852C46.3129 41.2852 46.0041 41.3476 45.0776 41.6599C44.0893 42.0347 43.8423 42.0972 43.8423 42.0972L44.1511 48.1561Z" fill="white"/>
<path d="M97.1504 31.6862L101.042 32.873C100.795 33.9974 100.362 34.8719 99.8063 35.6214C99.2504 36.371 98.571 36.9332 97.7063 37.3079C96.9034 37.6827 95.8534 37.8701 94.5563 37.8701C93.0122 37.8701 91.7151 37.6203 90.7269 37.183C89.7386 36.7458 88.8739 35.9337 88.1945 34.7469C87.4534 33.6226 87.1445 32.1235 87.1445 30.312C87.1445 27.9384 87.7622 26.0645 88.9975 24.8153C90.2328 23.5035 92.0239 22.8789 94.3092 22.8789C96.1004 22.8789 97.521 23.2537 98.571 24.0032C99.621 24.7528 100.362 25.8771 100.856 27.3763L96.9651 28.2508C96.8416 27.8135 96.6563 27.5012 96.5328 27.2513C96.2857 26.939 95.9769 26.6267 95.6063 26.4393C95.2357 26.2519 94.8651 26.1895 94.4328 26.1895C93.4445 26.1895 92.6416 26.6267 92.1475 27.4387C91.7151 28.0634 91.5298 29.0003 91.5298 30.312C91.5298 31.9361 91.7769 32.998 92.271 33.6226C92.7651 34.2472 93.4445 34.4971 94.3092 34.4971C95.1739 34.4971 95.7916 34.2472 96.2239 33.7475C96.6563 33.3103 96.9651 32.6232 97.1504 31.6862Z" fill="white"/>
<path d="M107.774 28.9995H109.627C109.812 28.9995 110.245 28.937 110.801 28.8121C111.11 28.7496 111.357 28.6247 111.542 28.3749C111.727 28.125 111.789 27.8751 111.789 27.5628C111.789 27.1256 111.665 26.7508 111.357 26.501C111.048 26.2511 110.492 26.1262 109.689 26.1262H107.774V28.9995ZM103.327 37.6194V23.1279H110.677C112.036 23.1279 113.086 23.2529 113.827 23.5027C114.568 23.7526 115.124 24.1898 115.557 24.8144C115.989 25.4391 116.236 26.2511 116.236 27.188C116.236 28.0001 116.051 28.6872 115.742 29.2493C115.433 29.8115 114.939 30.3112 114.321 30.686C113.951 30.9358 113.457 31.1232 112.777 31.2482C113.333 31.4356 113.704 31.6229 113.951 31.8103C114.136 31.9353 114.321 32.1851 114.63 32.5599C114.939 32.9347 115.124 33.247 115.248 33.4344L117.41 37.6194H112.407L110.06 33.1845C109.751 32.6224 109.504 32.2476 109.257 32.0602C108.948 31.8103 108.577 31.7479 108.145 31.7479H107.774V37.6194H103.327Z" fill="white"/>
<path d="M118.892 23.1279H130.689V26.2511H123.277V28.5622H130.133V31.498H123.277V34.3713H130.936V37.6194H118.892V23.1279Z" fill="white"/>
<path d="M137.236 30.436C137.236 31.8727 137.483 32.9345 138.039 33.5592C138.595 34.1838 139.274 34.4961 140.201 34.4961C141.127 34.4961 141.868 34.1838 142.424 33.5592C142.918 32.9345 143.227 31.8102 143.227 30.1861C143.227 28.8119 142.98 27.8125 142.424 27.1879C141.868 26.5633 141.127 26.2509 140.201 26.2509C139.336 26.2509 138.595 26.5633 138.039 27.1879C137.483 27.875 137.236 28.9369 137.236 30.436ZM132.851 30.3735C132.851 27.9999 133.468 26.1885 134.827 24.8768C136.124 23.565 137.915 22.8779 140.262 22.8779C142.609 22.8779 144.462 23.5026 145.759 24.8143C147.056 26.126 147.674 27.9375 147.674 30.2486C147.674 31.9351 147.365 33.3093 146.809 34.4336C146.254 35.4955 145.451 36.37 144.401 36.9322C143.351 37.5568 141.992 37.8067 140.448 37.8067C138.842 37.8067 137.483 37.5568 136.433 37.0571C135.383 36.5574 134.518 35.6829 133.839 34.5586C133.159 33.4967 132.851 32.1225 132.851 30.3735Z" fill="white"/>
<path d="M150.145 23.1279H154.221L159.595 31.1857V23.1279H163.795V37.6194H159.595L154.283 29.6866V37.6194H150.145V23.1279Z" fill="white"/>
<path d="M118.707 47.426C118.398 47.1137 118.275 46.6765 118.275 46.1768C118.275 45.677 118.398 45.2398 118.707 44.9275C119.016 44.6152 119.325 44.4278 119.757 44.4278C120.189 44.4278 120.498 44.6152 120.807 44.9275C121.116 45.2398 121.239 45.677 121.239 46.1768C121.239 46.6765 121.116 47.1137 120.807 47.426C120.498 47.7383 120.189 47.9257 119.757 47.9257C119.386 47.9257 119.016 47.7383 118.707 47.426ZM118.336 51.1738V48.4879C118.831 49.1125 119.51 49.4248 120.251 49.4248C120.622 49.4248 120.992 49.3624 121.301 49.2375C121.61 49.1125 121.919 48.9251 122.166 48.6128C122.413 48.363 122.66 47.9882 122.784 47.6134C122.907 47.1762 123.031 46.7389 123.031 46.2392C123.031 45.7395 122.969 45.3023 122.784 44.865C122.598 44.4278 122.413 44.1155 122.166 43.8656C121.919 43.6158 121.61 43.4284 121.301 43.241C120.992 43.1161 120.622 43.0536 120.251 43.0536C119.448 43.0536 118.831 43.3659 118.336 44.053V43.1785H116.607V51.1738H118.336ZM112.531 49.175C112.778 48.9876 113.086 48.7378 113.334 48.4254V49.2999H115.063V43.1161H113.334V46.5515C113.334 46.9888 113.21 47.3011 113.025 47.4885C112.839 47.6759 112.592 47.8008 112.222 47.8008C111.913 47.8008 111.604 47.6759 111.419 47.4885C111.234 47.3011 111.172 46.9888 111.172 46.5515V43.1161H109.442V47.1137C109.442 47.8008 109.628 48.363 109.998 48.8002C110.369 49.2375 110.863 49.4248 111.542 49.4248C111.913 49.4248 112.222 49.2999 112.531 49.175ZM103.76 47.426C103.451 47.1137 103.328 46.6765 103.328 46.2392C103.328 45.7395 103.451 45.3647 103.76 45.0524C104.069 44.7401 104.439 44.5527 104.934 44.5527C105.428 44.5527 105.798 44.7401 106.107 45.0524C106.416 45.3647 106.539 45.802 106.539 46.2392C106.539 46.7389 106.416 47.1137 106.107 47.426C105.798 47.7383 105.428 47.9257 104.934 47.9257C104.439 47.9257 104.069 47.7383 103.76 47.426ZM106.601 48.9876C107.095 48.6753 107.528 48.3005 107.775 47.8008C108.084 47.3011 108.207 46.7389 108.207 46.1768C108.207 45.6146 108.084 45.0524 107.775 44.5527C107.466 44.053 107.095 43.6782 106.601 43.3659C106.107 43.0536 105.551 42.9287 104.934 42.9287C104.439 42.9287 104.007 42.9911 103.636 43.1785C103.204 43.3659 102.895 43.5533 102.586 43.8656C102.278 44.1779 102.092 44.4902 101.907 44.865C101.722 45.2398 101.66 45.677 101.66 46.1143C101.66 46.6765 101.784 47.2386 102.092 47.7383C102.401 48.238 102.772 48.6128 103.266 48.9251C103.76 49.2375 104.316 49.3624 104.934 49.3624C105.489 49.4248 106.045 49.2999 106.601 48.9876ZM99.0041 49.2999V46.9888C99.0041 46.2392 99.1894 45.7395 99.4983 45.3647C99.8071 44.9899 100.301 44.8026 100.857 44.8026H100.981V42.9911C100.054 42.9287 99.4365 43.4284 99.0041 44.3653V43.1161H97.2747V49.2999H99.0041ZM95.7306 48.1756V44.6776H92.2718V46.1768H94.063V47.3636C93.6306 47.6759 93.0747 47.8633 92.3953 47.8633C91.7159 47.8633 91.0983 47.6134 90.6659 47.1137C90.2335 46.614 89.9865 45.9894 89.9865 45.3023C89.9865 44.6152 90.2335 43.9905 90.6659 43.5533C91.0983 43.0536 91.6541 42.8037 92.2718 42.8037C92.7041 42.8037 93.0747 42.8662 93.3835 42.9911C93.6924 43.1161 94.0012 43.3034 94.3718 43.6158L95.4836 42.2416C95.0512 41.8668 94.5571 41.6169 94.1247 41.4295C93.6306 41.2422 93.0747 41.1797 92.3953 41.1797C91.7777 41.1797 91.2218 41.3046 90.7277 41.492C90.2335 41.7419 89.7394 41.9917 89.3688 42.3665C88.9983 42.7413 88.6894 43.1785 88.5041 43.6782C88.3188 44.1779 88.1953 44.7401 88.1953 45.3023C88.1953 45.8644 88.3188 46.4266 88.5041 46.9888C88.6894 47.4885 88.9983 47.9257 89.3688 48.3005C89.7394 48.6753 90.1718 48.9876 90.7277 49.175C91.2218 49.3624 91.8394 49.4873 92.4571 49.4873C93.6306 49.4249 94.7424 48.9876 95.7306 48.1756Z" fill="white"/>
</svg>

<svg width="179" height="71" fill="none" xmlns="http://www.w3.org/2000/svg"><path fill="#E21A1A" d="M0 0h70.658v71H0z"/><path fill="#194D92" d="M179 0H70.658v71H179z"/><path d="M35.998 28.168l.248 6.558s.432-.187 1.729-.5c.988-.374.988-.374 1.668-.499 0 0 .123-3.123.185-3.31.062-.188.618-.438 1.853-.438 1.297 0 1.791.25 1.791.5s.124 2.498.124 2.498 2.903-.437 5.806-.624c2.964-.188 6.3 0 6.3 0s-.124-1.062-.618-2.561c-.556-1.687-.988-2.561-.988-2.561s-2.718-.687-9.265-.313c-5.25.25-8.833 1.25-8.833 1.25zm12.785-8.245s-.74-.875-3.829-2.561c-3.582-1.936-6.794-2.374-9.45-2.374-2.409 0-5.373.313-9.388 2-4.324 1.873-8.153 6.808-8.153 6.808s5.991-2.936 14.947-4.185c8.647-1.125 15.873.312 15.873.312z" fill="#fff"/><path d="M51.933 23.483c-1.05-1.436-2.1-2.498-2.1-2.498s-7.658-1.812-18.653.375c-8.276 1.624-14.885 5.309-14.885 5.309s-.618 1.25-1.297 3.685a27.645 27.645 0 0 0-.741 3.748s2.347-1.312 6.98-3.185c7.473-3.061 10.5-3.686 10.5-3.686s.185-3.186.246-3.373c.062-.25 1.05-.437 1.977-.437.926 0 2.038.187 2.038.375 0 .187.062 2.623.062 2.623s5.126-.812 9.141-.812c5.682-.062 8.4.562 8.4.562s-.618-1.186-1.668-2.686z" fill="#fff"/><path d="M14.133 36.976s-.061 1.811.433 3.998a23.428 23.428 0 0 0 1.05 3.435s3.89-2.374 7.473-4.185c4.633-2.374 8.091-3.873 8.091-3.873l.371-7.183s-3.582 1-9.574 3.81c-5.867 2.686-7.844 3.998-7.844 3.998zm22.174-.313l.247 6.184s.68-.312 1.358-.562c.68-.312 1.298-.562 1.298-.562l.308-6.184s-.617.188-1.729.562c-.68.25-.927.313-1.482.562zm7.35-2.061s2.594-.687 5.497-.936c4.323-.375 6.732-.125 6.732-.125s.309 1.436.309 2.873c0 1.187-.124 2.061-.124 2.061s-1.605.063-3.211.25c-1.297.125-2.965.375-2.965.375s-.124-2.249-.124-2.499c0-.187-.555-.374-1.605-.374-.927 0-1.545.187-1.545.312 0 .187 0-.125-.123 2.998 0 0-.618.187-1.174.312-.555.125-1.358.375-1.358.375l-.31-5.622zm-12.6 4.123l-.37 6.995c-1.669 1.062-1.73 1.125-4.324 2.811-2.656 1.75-5.374 3.936-5.374 3.936s-.741-.563-2.347-2.561c-1.174-1.437-1.853-2.811-1.853-2.811s3.335-2.436 7.535-4.872c4.139-2.312 6.733-3.498 6.733-3.498zm-.494 9.931l-.31 7.746-1.11 1s-1.669-.626-3.274-1.375c-1.606-.812-2.718-1.624-2.718-1.624s1.853-1.562 3.15-2.561c1.791-1.374 4.262-3.186 4.262-3.186zm6.053-3.498l.247 6.934 1.915-1.25.308-6.933s-.247.063-1.358.625c-.742.437-1.112.624-1.112.624zm13.217-4.56l.123 4.81s1.977-.875 2.842-1.25c.988-.374 1.976-.812 1.976-.812l.618-1.624c.432-1.374.494-2.123.494-2.123s-1.174.062-3.088.374c-1.42.25-2.965.625-2.965.625zm-5.682 7.558l1.791-1 .37-5.87s-.308.062-1.234.374c-.989.375-1.236.437-1.236.437l.31 6.06zm52.999-16.47l3.892 1.187a7.016 7.016 0 0 1-1.236 2.748 5.07 5.07 0 0 1-2.1 1.687c-.803.375-1.853.562-3.15.562-1.544 0-2.84-.25-3.83-.687-.987-.437-1.852-1.25-2.531-2.436-.742-1.124-1.05-2.623-1.05-4.435 0-2.374.617-4.248 1.853-5.497 1.235-1.312 3.026-1.936 5.311-1.936 1.791 0 3.212.375 4.262 1.124 1.05.75 1.791 1.874 2.285 3.373l-3.89.875c-.124-.438-.31-.75-.433-1-.247-.312-.556-.624-.927-.812-.37-.187-.74-.25-1.173-.25-.989 0-1.791.438-2.286 1.25-.432.624-.617 1.561-.617 2.873 0 1.624.247 2.686.741 3.31.494.625 1.174.875 2.038.875.865 0 1.483-.25 1.915-.75.432-.437.741-1.124.926-2.06zM107.774 29h1.853c.185 0 .618-.063 1.174-.188.309-.062.556-.187.741-.437.185-.25.247-.5.247-.812 0-.437-.124-.812-.432-1.062-.309-.25-.865-.375-1.668-.375h-1.915V29zm-4.447 8.62V23.127h7.35c1.359 0 2.409.125 3.15.375.741.25 1.297.687 1.73 1.311.432.625.679 1.437.679 2.374 0 .812-.185 1.5-.494 2.061-.309.563-.803 1.062-1.421 1.437-.37.25-.864.437-1.544.562.556.188.927.375 1.174.562.185.125.37.375.679.75.309.375.494.687.618.874l2.162 4.185h-5.003l-2.347-4.434c-.309-.563-.556-.937-.803-1.125-.309-.25-.68-.312-1.112-.312h-.371v5.871h-4.447zm15.565-14.492h11.797v3.123h-7.412v2.311h6.856v2.936h-6.856v2.873h7.659v3.248h-12.044V23.128zm18.344 7.308c0 1.437.247 2.498.803 3.123s1.235.937 2.162.937c.926 0 1.667-.312 2.223-.937.494-.624.803-1.749.803-3.373 0-1.374-.247-2.373-.803-2.998s-1.297-.937-2.223-.937c-.865 0-1.606.312-2.162.937-.556.687-.803 1.749-.803 3.248zm-4.385-.063c0-2.373.617-4.184 1.976-5.496 1.297-1.312 3.088-2 5.435-2 2.347 0 4.2.626 5.497 1.937 1.297 1.312 1.915 3.123 1.915 5.435 0 1.686-.309 3.06-.865 4.185-.555 1.062-1.358 1.936-2.408 2.498-1.05.625-2.409.875-3.953.875-1.606 0-2.965-.25-4.015-.75-1.05-.5-1.915-1.374-2.594-2.498-.68-1.062-.988-2.436-.988-4.185zm17.294-7.245h4.076l5.374 8.058v-8.058h4.2v14.491h-4.2l-5.312-7.932v7.932h-4.138V23.128zm-31.438 24.298c-.309-.312-.432-.75-.432-1.25 0-.499.123-.936.432-1.248.309-.313.618-.5 1.05-.5.432 0 .741.187 1.05.5.309.312.432.749.432 1.249 0 .5-.123.937-.432 1.249-.309.312-.618.5-1.05.5-.371 0-.741-.188-1.05-.5zm-.371 3.748v-2.686a2.389 2.389 0 0 0 1.915.937c.371 0 .741-.063 1.05-.188a2.05 2.05 0 0 0 .865-.624c.247-.25.494-.625.618-1 .123-.437.247-.874.247-1.374 0-.5-.062-.937-.247-1.374-.186-.437-.371-.75-.618-1s-.556-.437-.865-.624a2.856 2.856 0 0 0-1.05-.187c-.803 0-1.42.312-1.915.999v-.874h-1.729v7.995h1.729zm-5.805-1.999c.247-.187.555-.437.803-.75v.875h1.729v-6.184h-1.729v3.435c0 .438-.124.75-.309.938-.186.187-.433.312-.803.312-.309 0-.618-.125-.803-.313-.185-.187-.247-.5-.247-.937v-3.435h-1.73v3.998c0 .687.186 1.249.556 1.686.371.438.865.625 1.544.625.371 0 .68-.125.989-.25zm-8.771-1.749c-.309-.312-.432-.75-.432-1.187 0-.5.123-.874.432-1.187.309-.312.679-.5 1.174-.5.494 0 .864.188 1.173.5.309.313.432.75.432 1.187 0 .5-.123.875-.432 1.187-.309.312-.679.5-1.173.5-.495 0-.865-.188-1.174-.5zm2.841 1.562c.494-.313.927-.688 1.174-1.187.309-.5.432-1.062.432-1.624s-.123-1.125-.432-1.624c-.309-.5-.68-.875-1.174-1.187-.494-.312-1.05-.437-1.667-.437-.495 0-.927.062-1.298.25-.432.187-.741.374-1.05.687-.308.312-.494.624-.679.999-.185.375-.247.812-.247 1.25 0 .561.124 1.124.432 1.623.309.5.68.875 1.174 1.187.494.313 1.05.437 1.668.437.555.063 1.111-.062 1.667-.374zm-7.597.312v-2.311c0-.75.185-1.25.494-1.624.31-.375.803-.562 1.359-.562h.124V42.99c-.927-.062-1.544.437-1.977 1.374v-1.249h-1.73V49.3h1.73zm-3.273-1.124v-3.498h-3.46v1.499h1.792v1.187c-.432.312-.988.5-1.668.5-.68 0-1.297-.25-1.73-.75a2.739 2.739 0 0 1-.678-1.812c0-.687.247-1.312.679-1.749.432-.5.988-.75 1.606-.75.432 0 .803.063 1.111.188.31.125.618.312.989.625l1.112-1.374c-.433-.375-.927-.625-1.36-.813-.493-.187-1.05-.25-1.729-.25-.617 0-1.173.126-1.667.313-.494.25-.989.5-1.36.875-.37.374-.679.812-.864 1.311a4.739 4.739 0 0 0-.309 1.624c0 .562.124 1.125.31 1.687.184.5.493.937.864 1.312.37.374.803.687 1.359.874a5.02 5.02 0 0 0 1.73.312c1.173-.062 2.284-.5 3.273-1.311z" fill="#fff"/></svg>
